Numix-Circle/48x48/apps/parano.svg

<svg xmlns="http://www.w3.org/2000/svg" width="48" viewBox="0 0 13.546667 13.546667" height="48">
 <defs>
  <linearGradient id="linearGradient3792" x1="-27" x2="-24" gradientUnits="userSpaceOnUse">
   <stop style="stop-color:#ce6b20;stop-opacity:1"/>
   <stop offset="1" style="stop-color:#dd7425;stop-opacity:1"/>
  </linearGradient>
 </defs>
 <g>
  <path d="m 25 2 c -12.703 0 -23 10.297 -23 23 0 6.367 2.601 12.12 6.781 16.281 4.085 3.712 9.514 5.969 15.469 5.969 c 12.703 0 23 -10.297 23 -23 0 -5.954 -2.256 -11.384 -5.969 -15.469 c -4.165 -4.181 -9.914 -6.781 -16.281 -6.781 z m 16.281 6.781 c 3.854 4.113 6.219 9.637 6.219 15.719 c 0 12.703 -10.297 23 -23 23 c -6.081 0 -11.606 -2.364 -15.719 -6.219 4.16 4.144 9.883 6.719 16.219 6.719 12.703 0 23 -10.297 23 -23 0 -6.335 -2.575 -12.06 -6.719 -16.219 z" transform="scale(0.28222223,0.28222223)" style="fill:#000;opacity:0.05;fill-opacity:1;stroke:none"/>
  <path d="m 41.28 8.781 c 3.712 4.085 5.969 9.514 5.969 15.469 c 0 12.703 -10.297 23 -23 23 -5.954 0 -11.384 -2.256 -15.469 -5.969 c 4.113 3.854 9.637 6.219 15.719 6.219 c 12.703 0 23 -10.297 23 -23 0 -6.081 -2.364 -11.606 -6.219 -15.719 z" transform="scale(0.28222223,0.28222223)" style="fill:#000;opacity:0.1;fill-opacity:1;stroke:none"/>
  <path transform="matrix(4.3274074,0,0,3.2455556,117.19278,-35.348334)" d="m -24 13 a 1.5 2 0 1 1 -3 0 1.5 2 0 1 1 3 0 z" style="fill:#000;opacity:0.2;fill-opacity:1;stroke:none"/>
 </g>
 <g>
  <path d="m -24 13 a 1.5 2 0 1 1 -3 0 1.5 2 0 1 1 3 0 z" transform="matrix(0,-4.3274075,3.2455556,0,-35.418894,-103.57556)" style="fill:url(#linearGradient3792);fill-opacity:1;stroke:none"/>
  <path d="m 40.03 7.531 c 3.712 4.085 5.969 9.514 5.969 15.469 c 0 12.703 -10.297 23 -23 23 c -5.954 0 -11.384 -2.256 -15.469 -5.969 c 4.178 4.291 10.01 6.969 16.469 6.969 c 12.703 0 23 -10.297 23 -23 c 0 -6.462 -2.677 -12.291 -6.969 -16.469 z" transform="scale(0.28222223,0.28222223)" style="fill:#000;opacity:0.1;fill-opacity:1;stroke:none"/>
 </g>
 <g>
  <path d="m 4.48 3.387 c -0.139 0 -0.247 0.108 -0.247 0.247 l 0 6.844 c 0 0.139 0.108 0.247 0.247 0.247 l 5.151 0 c 0.139 0 0.247 -0.108 0.247 -0.247 l 0 -3.704 0 -1.693 -1.693 -1.693 -2.258 0 -0.564 0 -0.882 0 z" style="fill:#000;opacity:0.1;fill-opacity:1;stroke:none;fill-rule:nonzero"/>
  <path d="m 4.198 3.104 c -0.139 0 -0.247 0.108 -0.247 0.247 l 0 6.844 c 0 0.139 0.108 0.247 0.247 0.247 l 5.151 0 c 0.139 0 0.247 -0.108 0.247 -0.247 l 0 -5.398 -1.693 -1.693" style="fill:#e8e8d9;fill-opacity:1;stroke:none;fill-rule:nonzero"/>
  <path d="m 7.902 3.104 0 1.693 1.693 0" style="fill:#fff;fill-opacity:1;stroke:none;fill-rule:nonzero"/>
  <path d="m 9.596 6.491 0 -1.693 -1.693 0" style="fill:#000;fill-opacity:0.2;stroke:none;fill-rule:nonzero"/>
  <path d="m 7.105 6.02 c -0.13 0 -0.239 0.073 -0.289 0.176 c -0.099 -0.066 -0.237 -0.079 -0.349 -0.018 -0.112 0.06 -0.171 0.175 -0.16 0.287 -0.12 -0.001 -0.245 0.045 -0.309 0.148 -0.065 0.104 -0.052 0.232 0.02 0.324 -0.111 0.046 -0.189 0.148 -0.189 0.268 c 0 0.12 0.078 0.222 0.189 0.268 -0.071 0.092 -0.085 0.219 -0.02 0.324 0.064 0.103 0.189 0.158 0.309 0.148 -0.011 0.112 0.048 0.227 0.16 0.287 0.05 0.027 0.105 0.037 0.16 0.037 l 0 1.262 0.479 -0.444 0.479 0.444 0 -1.262 c 0.054 0 0.11 -0.001 0.16 -0.037 0.112 -0.06 0.171 -0.175 0.16 -0.287 0.12 0.001 0.245 -0.045 0.309 -0.148 0.065 -0.104 0.052 -0.232 -0.02 -0.324 0.111 -0.046 0.189 -0.148 0.189 -0.268 c 0 -0.12 -0.078 -0.222 -0.189 -0.268 0.071 -0.092 0.085 -0.219 0.02 -0.324 c -0.064 -0.103 -0.189 -0.158 -0.309 -0.148 0.011 -0.112 -0.048 -0.227 -0.16 -0.287 -0.112 -0.06 -0.25 -0.048 -0.349 0.018 -0.05 -0.103 -0.159 -0.176 -0.289 -0.176 z m 0 0.439 c 0.44 0 0.798 0.331 0.798 0.74 0 0.409 -0.357 0.74 -0.798 0.74 -0.44 0 -0.798 -0.331 -0.798 -0.74 0 -0.409 0.357 -0.74 0.798 -0.74 z m 0 0.148 c -0.352 0 -0.638 0.265 -0.638 0.592 0 0.327 0.286 0.592 0.638 0.592 0.352 0 0.638 -0.265 0.638 -0.592 0 -0.327 -0.286 -0.592 -0.638 -0.592 z" style="fill:#000;opacity:0.1;fill-opacity:1"/>
  <path d="m 6.822 5.743 c -0.13 0 -0.239 0.073 -0.289 0.176 c -0.099 -0.066 -0.237 -0.079 -0.349 -0.018 -0.112 0.06 -0.171 0.175 -0.16 0.287 -0.12 -0.001 -0.245 0.045 -0.309 0.148 -0.065 0.104 -0.052 0.232 0.02 0.324 -0.111 0.046 -0.189 0.148 -0.189 0.268 c 0 0.12 0.078 0.222 0.189 0.268 -0.071 0.092 -0.085 0.219 -0.02 0.324 0.064 0.103 0.189 0.158 0.309 0.148 -0.011 0.112 0.048 0.227 0.16 0.287 0.05 0.027 0.105 0.037 0.16 0.037 l 0 1.262 0.479 -0.444 0.479 0.444 0 -1.262 c 0.054 0 0.11 -0.001 0.16 -0.037 c 0.112 -0.06 0.171 -0.175 0.16 -0.287 0.12 0.001 0.245 -0.045 0.309 -0.148 0.065 -0.104 0.052 -0.232 -0.02 -0.324 0.111 -0.046 0.189 -0.148 0.189 -0.268 0 -0.12 -0.078 -0.222 -0.189 -0.268 0.071 -0.092 0.085 -0.219 0.02 -0.324 -0.064 -0.103 -0.189 -0.158 -0.309 -0.148 0.011 -0.112 -0.048 -0.227 -0.16 -0.287 -0.112 -0.06 -0.25 -0.048 -0.349 0.018 -0.05 -0.103 -0.159 -0.176 -0.289 -0.176 z m 0 0.439 c 0.44 0 0.798 0.331 0.798 0.74 0 0.409 -0.357 0.74 -0.798 0.74 -0.44 0 -0.798 -0.331 -0.798 -0.74 0 -0.409 0.357 -0.74 0.798 -0.74 z m 0 0.148 c -0.352 0 -0.638 0.265 -0.638 0.592 0 0.327 0.286 0.592 0.638 0.592 0.352 0 0.638 -0.265 0.638 -0.592 0 -0.327 -0.286 -0.592 -0.638 -0.592 z" style="fill:#a02c2c;fill-opacity:1"/>
 </g>
</svg>

<svg xmlns="http://www.w3.org/2000/svg" viewBox="0 0 48 48">
 <defs>
  <linearGradient id="linearGradient3764" x1="1" x2="47" gradientUnits="userSpaceOnUse" gradientTransform="matrix(0,-1,1,0,-1.5e-6,47.999998)">
   <stop style="stop-color:#ce6b20;stop-opacity:1"/>
   <stop offset="1" style="stop-color:#dd7425;stop-opacity:1"/>
  </linearGradient>
 </defs>
 <g>
  <path d="m 36.31 5 c 5.859 4.062 9.688 10.831 9.688 18.5 c 0 12.426 -10.07 22.5 -22.5 22.5 c -7.669 0 -14.438 -3.828 -18.5 -9.688 c 1.037 1.822 2.306 3.499 3.781 4.969 c 4.085 3.712 9.514 5.969 15.469 5.969 c 12.703 0 23 -10.298 23 -23 c 0 -5.954 -2.256 -11.384 -5.969 -15.469 c -1.469 -1.475 -3.147 -2.744 -4.969 -3.781 z m 4.969 3.781 c 3.854 4.113 6.219 9.637 6.219 15.719 c 0 12.703 -10.297 23 -23 23 c -6.081 0 -11.606 -2.364 -15.719 -6.219 c 4.16 4.144 9.883 6.719 16.219 6.719 c 12.703 0 23 -10.298 23 -23 c 0 -6.335 -2.575 -12.06 -6.719 -16.219 z" style="opacity:0.05"/>
  <path d="m 41.28 8.781 c 3.712 4.085 5.969 9.514 5.969 15.469 c 0 12.703 -10.297 23 -23 23 c -5.954 0 -11.384 -2.256 -15.469 -5.969 c 4.113 3.854 9.637 6.219 15.719 6.219 c 12.703 0 23 -10.298 23 -23 c 0 -6.081 -2.364 -11.606 -6.219 -15.719 z" style="opacity:0.1"/>
  <path d="m 31.25 2.375 c 8.615 3.154 14.75 11.417 14.75 21.13 c 0 12.426 -10.07 22.5 -22.5 22.5 c -9.708 0 -17.971 -6.135 -21.12 -14.75 a 23 23 0 0 0 44.875 -7 a 23 23 0 0 0 -16 -21.875 z" style="opacity:0.2"/>
 </g>
 <g>
  <path d="m 24 1 c 12.703 0 23 10.297 23 23 c 0 12.703 -10.297 23 -23 23 -12.703 0 -23 -10.297 -23 -23 0 -12.703 10.297 -23 23 -23 z" style="fill:url(#linearGradient3764);fill-opacity:1"/>
 </g>
 <g>
  <path d="m 40.03 7.531 c 3.712 4.084 5.969 9.514 5.969 15.469 0 12.703 -10.297 23 -23 23 c -5.954 0 -11.384 -2.256 -15.469 -5.969 4.178 4.291 10.01 6.969 16.469 6.969 c 12.703 0 23 -10.298 23 -23 0 -6.462 -2.677 -12.291 -6.969 -16.469 z" style="opacity:0.1"/>
 </g>
 <g transform="matrix(3.543307,0,0,3.543307,3.94043e-4,-0.00196757)">
  <path d="m 4.48 3.387 c -0.139 0 -0.247 0.108 -0.247 0.247 l 0 6.844 c 0 0.139 0.108 0.247 0.247 0.247 l 5.151 0 c 0.139 0 0.247 -0.108 0.247 -0.247 l 0 -3.704 0 -1.693 -1.693 -1.693 -2.258 0 -0.564 0 -0.882 0 z" style="fill:#000;opacity:0.1;fill-opacity:1;stroke:none;fill-rule:nonzero"/>
  <path d="m 4.198 3.104 c -0.139 0 -0.247 0.108 -0.247 0.247 l 0 6.844 c 0 0.139 0.108 0.247 0.247 0.247 l 5.151 0 c 0.139 0 0.247 -0.108 0.247 -0.247 l 0 -5.398 -1.693 -1.693" style="fill:#e8e8d9;fill-opacity:1;stroke:none;fill-rule:nonzero"/>
  <path d="m 7.902 3.104 0 1.693 1.693 0" style="fill:#fff;fill-opacity:1;stroke:none;fill-rule:nonzero"/>
  <path d="m 9.596 6.491 0 -1.693 -1.693 0" style="fill:#000;fill-opacity:0.2;stroke:none;fill-rule:nonzero"/>
  <path d="M 7.105,6.02 C 6.975,6.02 6.866,6.093 6.816,6.196 6.717,6.13 6.579,6.117 6.467,6.178 6.355,6.238 6.296,6.353 6.307,6.465 6.187,6.464 6.062,6.51 5.998,6.613 5.933,6.717 5.946,6.845 6.018,6.937 5.907,6.983 5.829,7.085 5.829,7.205 c 0,0.12 0.078,0.222 0.189,0.268 -0.071,0.092 -0.085,0.219 -0.02,0.324 0.064,0.103 0.189,0.158 0.309,0.148 -0.011,0.112 0.048,0.227 0.16,0.287 0.05,0.027 0.105,0.037 0.16,0.037 l 0,1.262 0.479,-0.444 0.479,0.444 0,-1.262 c 0.054,0 0.11,-10e-4 0.16,-0.037 C 7.857,8.172 7.916,8.057 7.905,7.945 8.025,7.946 8.15,7.9 8.214,7.797 8.279,7.693 8.266,7.565 8.194,7.473 8.305,7.427 8.383,7.325 8.383,7.205 8.383,7.085 8.305,6.983 8.194,6.937 8.265,6.845 8.279,6.718 8.214,6.613 8.15,6.51 8.025,6.455 7.905,6.465 7.916,6.353 7.857,6.238 7.745,6.178 7.633,6.118 7.495,6.13 7.396,6.196 7.346,6.093 7.237,6.02 7.107,6.02 Z m 0,0.439 c 0.44,0 0.798,0.331 0.798,0.74 0,0.409 -0.357,0.74 -0.798,0.74 -0.44,0 -0.798,-0.331 -0.798,-0.74 0,-0.409 0.357,-0.74 0.798,-0.74 z m 0,0.148 c -0.352,0 -0.638,0.265 -0.638,0.592 0,0.327 0.286,0.592 0.638,0.592 0.352,0 0.638,-0.265 0.638,-0.592 0,-0.327 -0.286,-0.592 -0.638,-0.592 z" style="fill:#000;opacity:0.1;fill-opacity:1"/>
  <path d="M 6.822,5.743 C 6.692,5.743 6.583,5.816 6.533,5.919 6.434,5.853 6.296,5.84 6.184,5.901 6.072,5.961 6.013,6.076 6.024,6.188 5.904,6.187 5.779,6.233 5.715,6.336 5.65,6.44 5.663,6.568 5.735,6.66 5.624,6.706 5.546,6.808 5.546,6.928 5.546,7.048 5.624,7.15 5.735,7.196 5.664,7.288 5.65,7.415 5.715,7.52 5.779,7.623 5.904,7.678 6.024,7.668 6.013,7.78 6.072,7.895 6.184,7.955 c 0.05,0.027 0.105,0.037 0.16,0.037 l 0,1.262 0.479,-0.444 0.479,0.444 0,-1.262 c 0.054,0 0.11,-0.001 0.16,-0.037 C 7.574,7.895 7.633,7.78 7.622,7.668 7.742,7.669 7.867,7.623 7.931,7.52 7.996,7.416 7.983,7.288 7.911,7.196 8.022,7.15 8.1,7.048 8.1,6.928 8.1,6.808 8.022,6.706 7.911,6.66 7.982,6.568 7.996,6.441 7.931,6.336 7.867,6.233 7.742,6.178 7.622,6.188 7.633,6.076 7.574,5.961 7.462,5.901 7.35,5.841 7.212,5.853 7.113,5.919 7.063,5.816 6.954,5.743 6.824,5.743 Z m 0,0.439 c 0.44,0 0.798,0.331 0.798,0.74 0,0.409 -0.357,0.74 -0.798,0.74 -0.44,0 -0.798,-0.331 -0.798,-0.74 0,-0.409 0.357,-0.74 0.798,-0.74 z m 0,0.148 C 6.47,6.33 6.184,6.595 6.184,6.922 6.184,7.249 6.47,7.514 6.822,7.514 7.174,7.514 7.46,7.249 7.46,6.922 7.46,6.595 7.174,6.33 6.822,6.33 Z" style="fill:#a02c2c;fill-opacity:1"/>
 </g>
</svg>
